X: 1
T: Gan aimn
M: 4/4
L: 1/8
R: strathspey/reel
N: John Doherty
K: Gmaj
dc | BG G/2G/2G cABg   | BG G/2G/2G BdAd | BG G/2G/2G cABd | e/2f/2g dg BgAg |
| BG G/2G/2G cABg   | BG G/2G/2G BdAd | BG G/2G/2G cABd | e/2f/2g dc BcAc |
| Bdde gded | Bdde gdBA | Bdde gfed | egdg BGG2 |
| Bdde gded | Bdde gdBA | Bdde gfed | egdc BcAc |
